assets/2023/icons/dart.svg

<svg xmlns="http://www.w3.org/2000/svg" width="16" height="16" viewBox="0 0 16 16">
  <g fill="none" fill-rule="evenodd" opacity=".9">
    <path fill="#70B4F4" d="M4.3255,4.3262 L3.3735,3.3732 L3.3795,10.2712 C3.3845,11.0172 3.3325,11.6362 3.7115,12.0142 L4.2215,12.5262 L12.4835,12.4842 L4.3255,4.3262"/>
    <polygon fill="#7CC1FD" points="4.222 12.526 6.696 15 12.53 15 12.484 12.484"/>
    <path fill="#305699" d="M3.3792 10.2715L3.3732 3.3735 1.1912 7.9255C.9362 8.4685.8282 9.1325 1.5732 9.8765L3.7112 12.0145C3.3322 11.6355 3.3842 11.0175 3.3792 10.2715M12.5257 4.2227L12.0147 3.7107C11.6357 3.3317 11.0177 3.3837 10.2717 3.3787L3.3737 3.3727 4.3267 4.3267 12.4837 12.4847 15.0007 12.5307 15.0007 6.6967 12.5257 4.2227z"/>
    <path fill="#7CC1FD" d="M10.2708,3.3789 L3.3738,3.3729 L7.9248,1.1909 C8.4688,0.9359 9.1328,0.8289 9.8768,1.5729 L12.0148,3.7109 C11.6358,3.3319 11.0168,3.3839 10.2708,3.3789"/>
  </g>
</svg>

<svg xmlns="http://www.w3.org/2000/svg" width="16" height="16" viewBox="0 0 16 16"><g fill="none" fill-rule="evenodd" opacity=".9"><path fill="#70B4F4" d="m4.326 4.326-.952-.953.006 6.898c.005.746-.047 1.365.332 1.743l.51.512 8.262-.042z"/><path fill="#7CC1FD" d="M4.222 12.526 6.696 15h5.834l-.046-2.516z"/><path fill="#305699" d="m3.38 10.272-.007-6.898-2.182 4.552c-.255.543-.363 1.207.382 1.95l2.138 2.139c-.379-.38-.327-.998-.332-1.744m9.147-6.048-.511-.512c-.38-.38-.997-.327-1.743-.332l-6.898-.006.953.954 8.157 8.158L15 12.53V6.697z"/><path fill="#7CC1FD" d="m10.27 3.379-6.896-.006 4.55-2.182c.545-.255 1.209-.362 1.953.382l2.138 2.138c-.38-.38-.998-.327-1.744-.332"/></g></svg>
